x-pack/solutions/search/plugins/serverless_search/public/assets/docker.svg

<svg width="16" height="12" viewBox="0 0 16 12" fill="none" xmlns="http://www.w3.org/2000/svg">
<path fill-rule="evenodd" clip-rule="evenodd" d="M9.04961 5.554H10.7016V4.0675H9.05011V5.554H9.04961ZM7.09711 5.554H8.74911V4.0675H7.09711V5.554ZM5.14461 5.554H6.79661V4.0675H5.14511V5.554H5.14461ZM3.19211 5.554H4.84511V4.0675H3.19211V5.554ZM1.24011 5.554H2.89211V4.0675H1.24011V5.554ZM3.19211 3.77H4.84511V2.284H3.19211V3.77ZM5.14461 3.77H6.79661V2.284H5.14511V3.77H5.14461ZM7.09711 3.77H8.74911V2.284H7.09711V3.77ZM7.09711 1.9865H8.74911V0.5H7.09711V1.9865ZM15.6666 4.6875C15.3056 4.4485 14.4766 4.361 13.8386 4.48C13.7566 3.885 13.4216 3.3695 12.8126 2.9035L12.4626 2.672L12.2286 3.019C11.9296 3.4655 11.7801 4.084 11.8286 4.6775C11.8511 4.8865 11.9201 5.2595 12.1371 5.5875C11.9206 5.703 11.4921 5.862 10.9271 5.8515H0.062113L0.040613 5.975C-0.061387 6.5715 -0.059387 8.432 1.16061 9.862C2.08911 10.949 3.48011 11.5 5.29511 11.5C9.23011 11.5 12.1416 9.707 13.5051 6.448C14.0416 6.458 15.1956 6.451 15.7886 5.3295C15.8041 5.304 15.8396 5.2365 15.9436 5.0245L16.0001 4.9075L15.6666 4.6875Z" fill="white"/>
</svg>

<svg xmlns="http://www.w3.org/2000/svg" width="16" height="12" fill="none"><path fill="#fff" fill-rule="evenodd" d="M9.05 5.554h1.652V4.067H9.05zm-1.953 0H8.75V4.067H7.097zm-1.952 0h1.652V4.067H5.145zm-1.953 0h1.653V4.067H3.192zm-1.952 0h1.652V4.067H1.24zM3.192 3.77h1.653V2.284H3.192zm1.953 0h1.652V2.284H5.145zm1.952 0H8.75V2.284H7.097zm0-1.783H8.75V.5H7.097zm8.57 2.7c-.361-.239-1.19-.326-1.828-.207-.082-.595-.417-1.11-1.026-1.577l-.35-.231-.234.347c-.3.446-.449 1.065-.4 1.659.022.208.091.582.308.91a2.54 2.54 0 0 1-1.21.263H.062l-.021.124c-.102.597-.1 2.457 1.12 3.887.928 1.087 2.32 1.638 4.134 1.638 3.935 0 6.847-1.793 8.21-5.052.537.01 1.69.003 2.284-1.118.015-.026.05-.093.155-.306L16 4.908z" clip-rule="evenodd"/></svg>
